documentation-kana/turtlecount_block.svg

<svg xmlns="http://www.w3.org/2000/svg" width="400.2750015258789" height="407"><g><g transform="translate(0, 0)"><g transform="scale(1.5, 1.5)"><path d="m0.5 14.5 L 0.5 10.5 A 4 4 90 0 1 4.5 6.5 L 8.5 6.5 L 13.5 0.5 L 18.5 6.5 L 27.5 6.5 L 97.5 6.5 L 101.5 6.5 A 4 4 90 0 1 105.5 10.5 L 105.5 14.5 L 105.5 18.5 L 105.5 22.5 A 4 4 90 0 1 101.5 26.5 L 97.5 26.5 L 27.5 26.5 L 26.5 26.5 L 26.5 28.5 L 18.5 28.5 L 18.5 26.5 L 17.5 26.5 L 13.5 26.5 A 5 5 90 0 0 8.5 31.5 L 8.5 35.5 L 8.5 39.5 L 8.5 81.5 L 8.5 85.5 A 5 5 90 0 0 13.5 90.5 L 17.5 90.5 L 17.5 92.5 L 27.5 92.5 L 27.5 90.5 L 35.5 90.5 L 35.5 96.5 L 35.5 102.5 L 35.5 106.5 A 4 4 90 0 1 31.5 110.5 L 27.5 110.5 L 18.5 110.5 L 13.5 116.5 L 8.5 110.5 L 4.5 110.5 A 4 4 90 0 1 0.5 106.5 L 0.5 102.5 z" style="fill:#F3C800;fill-opacity:1;stroke:#DAAF30;stroke-width:1;stroke-linecap:round;stroke-opacity:1;" /><text style="font-size:10px;fill:#282828;font-family:sans-serif;text-anchor:start"><tspan x="20" y="22">スタート</tspan></text></g></g><g transform="translate(0, 12) scale(0.5 0.5)"><g style="isolation:isolate"><g id="レイヤー_2" data-name="レイヤー 2"><g id="Icon"><rect width="42" height="42" rx="5" ry="5" style="fill:#292929;opacity:0.4;mix-blend-mode:multiply"/><path d="M30.56,29.8l-4.17-4.16h2.26a1,1,0,1,0,0-2.07H23.94a1.08,1.08,0,0,0-1.11,1v0s0,0,0,.06v4.64h0a1,1,0,1,0,2.08,0V27.08l4.19,4.19a1,1,0,0,0,1.46,0A1,1,0,0,0,30.56,29.8Z" style="fill:#fff"/><path d="M19.17,24.6a1.08,1.08,0,0,0-1.11-1H13.35a1,1,0,1,0,0,2.07H15.6L11.44,29.8a1,1,0,0,0,1.47,1.47l4.18-4.19v2.26a1,1,0,1,0,2.08,0V24.7s0,0,0-.06A.08.08,0,0,1,19.17,24.6Z" style="fill:#fff"/><path d="M23.94,20.5h4.7a1,1,0,1,0,0-2.08H26.39l4.17-4.16a1,1,0,0,0,0-1.47,1,1,0,0,0-1.46,0L24.91,17V14.72a1,1,0,1,0-2.08,0v4.64a.43.43,0,0,0,0,.05v.05A1.09,1.09,0,0,0,23.94,20.5Z" style="fill:#fff"/><path d="M18.13,13.62a1.08,1.08,0,0,0-1,1.09V17l-4.18-4.19a1,1,0,0,0-1.47,0,1,1,0,0,0,0,1.46l4.16,4.17H13.35a1,1,0,1,0,0,2.08h4.71a1.09,1.09,0,0,0,1.11-1,.08.08,0,0,1,0,0s0,0,0-.06V14.71A1.07,1.07,0,0,0,18.13,13.62Z" style="fill:#fff"/></g></g></g></g><g transform="translate(110, 12) scale(0.4 0.4)"><g transform="translate(-3.1884835,0.12548216)" style="fill:#ffada6;stroke:#ed001d;stroke-width:1.99999976;stroke-miterlimit:4;stroke-dasharray:none" id="g3586"><path style="fill:#ffada6;stroke:none;stroke-width:1px;stroke-linecap:butt;stroke-linejoin:miter;stroke-opacity:1" id="path4725" d="m 31.188483,5.8745178 c 0,0 -1.254644,-1 -2,-1 -1.490712,0 -2.945907,0.9459074 -4,2 -1.581139,1.5811389 -1.692548,4.1860072 -3,6.0000002 -0.826905,1.14727 -1.85273,2.173095 -3,3 -1.813992,1.307452 -4.41886,1.418861 -5.999999,3 -1.054093,1.054093 -2,2.509288 -2,4 0,1.490712 1.176934,3.540162 2,4 2.595129,1.449868 0.836609,0.648512 2,2 0,0 -1.040434,3.300808 -1,5 0.06539,2.747959 1.999999,7 1.999999,8 0,1 3.621931,4.46873 6,6 2.394526,1.541867 5.323775,2.059095 8.164792,2.258437 3.065644,0.215103 5.976447,-0.356365 8.670416,-1.835208 1.652944,-0.907377 3.020234,-1.924716 4.164792,-3.423229 1.631246,-2.13571 3.310226,-4.40261 4,-7 0.42778,-1.610833 0.203639,-3.345821 0,-5 -0.167925,-1.364071 -1.27205,-2.652826 -1,-4 0.329909,-1.633688 2.319717,-2.47849 3,-4 0.693755,-1.551642 1.687609,-3.445625 1,-5 -0.786311,-1.777496 -3.357594,-1.960634 -5,-3 -1.015577,-0.642689 -2.106041,-1.196706 -3,-2 -1.93647,-1.740075 -3.442391,-3.913943 -5,-6.0000002 -0.71906,-0.9630146 -1.044881,-2.2704844 -2,-3 -0.837694,-0.6398275 -1.974105,-1.2421808 -3,-1 -0.458794,0.1083066 -1,1 -1,1" /><path d="m 46.209786,28.156906 c 0,0 1.463947,5.738921 1.001084,8.583832 -0.503422,3.094194 -1.733796,6.320068 -4.004337,8.583833 -2.061998,2.055845 -3.20724,2.828474 -6.006505,3.815036 -1.290398,0.454783 -4.973515,0.953759 -6.514048,0.953759 -1.540535,0 -5.223651,-0.498977 -6.514049,-0.95376 -2.799265,-0.986562 -3.944507,-1.759191 -6.006506,-3.815036 -2.270541,-2.263765 -3.500915,-5.489639 -4.004337,-8.583833 -0.462863,-2.844911 1.001084,-8.583832 1.001084,-8.583832 M 28.176267,22.43435 c 0,0 -4.122174,4.705629 -7.007589,5.722555 -1.877805,0.661806 -4.201946,0.826315 -6.006506,0 -1.925806,-0.881834 -3.58357,-2.772978 -4.004337,-4.768796 -0.478397,-2.26917 0.558956,-4.123549 2.470477,-5.529022 2.067374,-1.520067 4.598363,-1.662883 6.539282,-3.054811 2.515152,-1.803739 2.912345,-5.389772 5.005421,-7.6300732 1.420632,-1.520559 5.512965,-3.8150366 5.512965,-3.8150366 0,0 4.092331,2.2944775 5.512964,3.8150365 2.093073,2.2403013 2.490269,5.8263353 5.005421,7.6300743 1.940919,1.391928 4.538808,1.465531 6.606183,2.927334 1.937249,1.369793 2.881973,3.387329 2.403575,5.656499 -0.420767,1.995818 -2.078532,3.886962 -4.004337,4.768796 -1.80456,0.826315 -4.1287,0.661806 -6.006505,0 -2.885416,-1.016926 -7.00759,-5.722555 -7.00759,-5.722555" id="path4505-6" style="fill:none;stroke:#ed001d;stroke-width:1.95427048;stroke-linecap:round;stroke-linejoin:miter;stroke-miterlimit:4;stroke-dasharray:none;stroke-opacity:1" /><g id="g4565" transform="matrix(1.0010843,0,0,0.95375917,57.401951,5.3863652)" style="fill:none;stroke:#ed001d;stroke-opacity:1"><g id="g4553" transform="translate(0,-1)" style="fill:none;stroke:#ed001d;stroke-opacity:1"><path d="M -30.228157,8.514322 C -33.422908,9.40349 -38.624018,5.874516 -40.102591,4.585664" id="path3411-7" style="fill:none;fill-rule:evenodd;stroke:#ed001d;stroke-width:1.93205309;stroke-linecap:butt;stroke-linejoin:miter;stroke-miterlimit:4;stroke-dasharray:none;stroke-opacity:1" /><path d="M -29.760199,5.904536 C -33.101366,5.473905 -35.931474,3.7361852 -37.633646,2.3416285" id="path3413-5" style="fill:none;fill-rule:evenodd;stroke:#ed001d;stroke-width:1.93205309;stroke-linecap:butt;stroke-linejoin:miter;stroke-miterlimit:4;stroke-dasharray:none;stroke-opacity:1" /></g><g id="g4557" style="fill:none;stroke:#ed001d;stroke-opacity:1"><path d="m -23.145912,7.514322 c 3.194751,0.889168 8.395861,-2.639806 9.874434,-3.928658" id="path3411-3" style="fill:none;fill-rule:evenodd;stroke:#ed001d;stroke-width:1.93205309;stroke-linecap:butt;stroke-linejoin:miter;stroke-miterlimit:4;stroke-dasharray:none;stroke-opacity:1" /><path d="m -23.61387,4.904536 c 3.341167,-0.430631 6.171275,-2.168351 7.873447,-3.5629075" id="path3413-56" style="fill:none;fill-rule:evenodd;stroke:#ed001d;stroke-width:1.93205309;stroke-linecap:butt;stroke-linejoin:miter;stroke-miterlimit:4;stroke-dasharray:none;stroke-opacity:1" /></g></g><g id="g4636" transform="matrix(1.0010843,0,0,0.95375917,57.930597,3.4788469)" style="fill:#ffffff;stroke:#ed001d;stroke-opacity:1;fill-opacity:0.94117647"><ellipse cx="-30.836912" cy="14.612609" id="circle3409-2" rx="1.8846371" ry="2.0666313" style="fill:#ffffff;fill-rule:evenodd;stroke:#ed001d;stroke-width:1.99999976;stroke-linecap:butt;stroke-linejoin:miter;stroke-miterlimit:4;stroke-dasharray:none;stroke-opacity:1;fill-opacity:0.94117647" /><ellipse cx="-23.593306" cy="14.699166" id="ellipse4229-9" rx="1.8846371" ry="2.0666313" style="fill:#ffffff;fill-rule:evenodd;stroke:#ed001d;stroke-width:1.99999976;stroke-linecap:butt;stroke-linejoin:miter;stroke-miterlimit:4;stroke-dasharray:none;stroke-opacity:1;fill-opacity:0.94117647" /></g><g id="g4632" transform="matrix(1.0010843,0,0,0.95375917,58.02711,3.4788469)" style="fill:none;stroke:#ed001d;stroke-opacity:1"><path d="m -37.186516,14.624518 c -14.340024,2.75008 -4.810404,15.671871 4.375,5.25" id="path4303-1" style="fill:none;fill-rule:evenodd;stroke:#ed001d;stroke-width:1px;stroke-linecap:butt;stroke-linejoin:miter;stroke-miterlimit:4;stroke-dasharray:none;stroke-opacity:1" /><path d="m -17.436517,14.624518 c 14.3400245,2.75008 4.810404,15.671872 -4.375,5.25" id="path4303-1-2" style="fill:none;fill-rule:evenodd;stroke:#ed001d;stroke-width:1px;stroke-linecap:butt;stroke-linejoin:miter;stroke-miterlimit:4;stroke-dasharray:none;stroke-opacity:1" /></g><path d="m 33.12784,3.3591671 c -1.384692,1.3140551 -1.985761,2.3793068 -2.459835,2.3793068 -0.662709,0 -1.27278,-1.0652517 -2.459836,-2.3793068 -0.97292,-1.0770097 1.101306,-2.37930771 2.459836,-2.37930771 1.358531,0 3.532987,1.36090081 2.459835,2.37930771 z" id="path4227-7" style="fill:#ed001d;fill-rule:evenodd;stroke:#ed001d;stroke-width:2.16383076;stroke-linecap:butt;stroke-linejoin:miter;stroke-miterlimit:4;stroke-dasharray:none;stroke-opacity:1;fill-opacity:1" /><path style="fill:none;stroke:#ed001d;stroke-width:1.95427048;stroke-linecap:round;stroke-linejoin:miter;stroke-miterlimit:4;stroke-dasharray:none;stroke-opacity:1" id="path4653" d="m 31.302308,50.085622 c 0,0 0.723125,3.123831 5.500191,3.669996 4.777067,0.546166 11.784656,-3.778776 14.78791,-9.501331 3.003254,-5.722555 2.402683,-11.490783 3.003253,-18.121425" /></g></g></g><g transform="translate(14, 41)"><g transform="scale(1.5, 1.5)"><path d="m0.5 8.5 L 0.5 4.5 A 4 4 90 0 1 4.5 0.5 L 8.5 0.5 L 8.5 2.5 L 18.5 2.5 L 18.5 0.5 L 134.86666870117188 0.5 L 138.86666870117188 0.5 A 4 4 90 0 1 142.86666870117188 4.5 L 142.86666870117188 8.5 L 138.86666870117188 8.5 L 138.86666870117188 5.5 L 134.86666870117188 5.5 L 134.86666870117188 15.5 L 138.86666870117188 15.5 L 138.86666870117188 12.5 L 142.86666870117188 12.5 L 142.86666870117188 16.5 A 4 4 90 0 1 138.86666870117188 20.5 L 134.86666870117188 20.5 L 18.5 20.5 L 17.5 20.5 L 17.5 22.5 L 9.5 22.5 L 9.5 20.5 L 8.5 20.5 L 4.5 20.5 A 4 4 90 0 1 0.5 16.5 L 0.5 12.5 L 0.5 8.5 z" style="fill:#92A9FF;fill-opacity:1;stroke:#5370DC;stroke-width:1;stroke-linecap:round;stroke-opacity:1;" /><text style="font-size:10px;fill:#282828;font-family:sans-serif;text-anchor:end"><tspan x="133" y="14">ネズミに なまえを つける</tspan></text><text style="font-size:6.666666666666667px;fill:#282828;font-family:sans-serif;text-anchor:end"><tspan x="133" y="12"></tspan></text></g></g><g transform="translate(217, 41)"><g transform="scale(1.5, 1.5)"><path d="m8.5 0.5 L 121.68333435058594 0.5 L 121.68333435058594 20.5 L 8.5 20.5 L 8.5 12.5 L 8.5 11.5 L 2.5 11.5 L 2.5 14.5 L 0.5 14.5 L 0.5 6.5 L 2.5 6.5 L 2.5 9.5 L 8.5 9.5 L 8.5 8.5 z" style="fill:#FF664B;fill-opacity:1;stroke:#EA4326;stroke-width:1;stroke-linecap:round;stroke-opacity:1;" /><text style="font-size:10px;fill:#282828;font-family:sans-serif;text-anchor:start"><tspan x="13" y="14">スネアドラム</tspan></text></g></g><g transform="translate(14, 73)"><g transform="scale(1.5, 1.5)"><path d="m0.5 8.5 L 0.5 4.5 A 4 4 90 0 1 4.5 0.5 L 8.5 0.5 L 8.5 2.5 L 18.5 2.5 L 18.5 0.5 L 63.5 0.5 L 67.5 0.5 A 4 4 90 0 1 71.5 4.5 L 71.5 8.5 L 67.5 8.5 L 67.5 5.5 L 63.5 5.5 L 63.5 15.5 L 67.5 15.5 L 67.5 12.5 L 71.5 12.5 L 71.5 29.5 L 67.5 29.5 L 67.5 26.5 L 63.5 26.5 L 63.5 36.5 L 67.5 36.5 L 67.5 33.5 L 71.5 33.5 L 71.5 37.5 A 4 4 90 0 1 67.5 41.5 L 63.5 41.5 L 18.5 41.5 L 17.5 41.5 L 17.5 43.5 L 9.5 43.5 L 9.5 41.5 L 8.5 41.5 L 4.5 41.5 A 4 4 90 0 1 0.5 37.5 L 0.5 33.5 L 0.5 12.5 L 0.5 8.5 z" style="fill:#F3C800;fill-opacity:1;stroke:#DAAF30;stroke-width:1;stroke-linecap:round;stroke-opacity:1;" /><text style="font-size:10px;fill:#282828;font-family:sans-serif;text-anchor:end"><tspan x="61" y="24">のとき</tspan></text><text style="font-size:6.666666666666667px;fill:#282828;font-family:sans-serif;text-anchor:end"><tspan x="61" y="12">イベント</tspan></text><text style="font-size:6.666666666666667px;fill:#282828;font-family:sans-serif;text-anchor:end"><tspan x="61" y="33">アクション じっこう</tspan></text></g></g><g transform="translate(110, 105)"><g transform="scale(1.5, 1.5)"><path d="m8.5 0.5 L 121.68333435058594 0.5 L 121.68333435058594 20.5 L 8.5 20.5 L 8.5 12.5 L 8.5 11.5 L 2.5 11.5 L 2.5 14.5 L 0.5 14.5 L 0.5 6.5 L 2.5 6.5 L 2.5 9.5 L 8.5 9.5 L 8.5 8.5 z" style="fill:#FF664B;fill-opacity:1;stroke:#EA4326;stroke-width:1;stroke-linecap:round;stroke-opacity:1;" /><text style="font-size:10px;fill:#282828;font-family:sans-serif;text-anchor:start"><tspan x="13" y="14">アクション</tspan></text></g></g><g transform="translate(110, 73)"><g transform="scale(1.5, 1.5)"><path d="m8.5 0.5 L 78.5 0.5 L 78.5 20.5 L 8.5 20.5 L 8.5 12.5 L 8.5 11.5 L 2.5 11.5 L 2.5 14.5 L 0.5 14.5 L 0.5 6.5 L 2.5 6.5 L 2.5 9.5 L 8.5 9.5 L 8.5 8.5 z" style="fill:#AABB00;fill-opacity:1;stroke:#748400;stroke-width:1;stroke-linecap:round;stroke-opacity:1;" /><text style="font-size:10px;fill:#282828;font-family:sans-serif;text-anchor:start"><tspan x="13" y="14">クリック</tspan></text></g></g><g><g transform="translate(0, 200)"><g transform="scale(1.5, 1.5)"><path d="m0.5 14.5 L 0.5 10.5 A 4 4 90 0 1 4.5 6.5 L 8.5 6.5 L 13.5 0.5 L 18.5 6.5 L 27.5 6.5 L 107.5 6.5 L 111.5 6.5 A 4 4 90 0 1 115.5 10.5 L 115.5 14.5 L 111.5 14.5 L 111.5 11.5 L 107.5 11.5 L 107.5 21.5 L 111.5 21.5 L 111.5 18.5 L 115.5 18.5 L 115.5 22.5 A 4 4 90 0 1 111.5 26.5 L 107.5 26.5 L 27.5 26.5 L 26.5 26.5 L 26.5 28.5 L 18.5 28.5 L 18.5 26.5 L 17.5 26.5 L 13.5 26.5 A 5 5 90 0 0 8.5 31.5 L 8.5 35.5 L 8.5 39.5 L 8.5 102.5 L 8.5 106.5 A 5 5 90 0 0 13.5 111.5 L 17.5 111.5 L 17.5 113.5 L 27.5 113.5 L 27.5 111.5 L 35.5 111.5 L 35.5 117.5 L 35.5 123.5 L 35.5 127.5 A 4 4 90 0 1 31.5 131.5 L 27.5 131.5 L 18.5 131.5 L 13.5 137.5 L 8.5 131.5 L 4.5 131.5 A 4 4 90 0 1 0.5 127.5 L 0.5 123.5 z" style="fill:#F3C800;fill-opacity:1;stroke:#DAAF30;stroke-width:1;stroke-linecap:round;stroke-opacity:1;" /><text style="font-size:10px;fill:#282828;font-family:sans-serif;text-anchor:start"><tspan x="20" y="22">アクション</tspan></text><text style="font-size:6.666666666666667px;fill:#282828;font-family:sans-serif;text-anchor:end"><tspan x="105" y="6"></tspan></text></g></g><g transform="translate(0, 212) scale(0.5 0.5)"><g style="isolation:isolate"><g id="レイヤー_2" data-name="レイヤー 2"><g id="Icon"><rect width="42" height="42" rx="5" ry="5" style="fill:#292929;opacity:0.4;mix-blend-mode:multiply"/><path d="M30.56,29.8l-4.17-4.16h2.26a1,1,0,1,0,0-2.07H23.94a1.08,1.08,0,0,0-1.11,1v0s0,0,0,.06v4.64h0a1,1,0,1,0,2.08,0V27.08l4.19,4.19a1,1,0,0,0,1.46,0A1,1,0,0,0,30.56,29.8Z" style="fill:#fff"/><path d="M19.17,24.6a1.08,1.08,0,0,0-1.11-1H13.35a1,1,0,1,0,0,2.07H15.6L11.44,29.8a1,1,0,0,0,1.47,1.47l4.18-4.19v2.26a1,1,0,1,0,2.08,0V24.7s0,0,0-.06A.08.08,0,0,1,19.17,24.6Z" style="fill:#fff"/><path d="M23.94,20.5h4.7a1,1,0,1,0,0-2.08H26.39l4.17-4.16a1,1,0,0,0,0-1.47,1,1,0,0,0-1.46,0L24.91,17V14.72a1,1,0,1,0-2.08,0v4.64a.43.43,0,0,0,0,.05v.05A1.09,1.09,0,0,0,23.94,20.5Z" style="fill:#fff"/><path d="M18.13,13.62a1.08,1.08,0,0,0-1,1.09V17l-4.18-4.19a1,1,0,0,0-1.47,0,1,1,0,0,0,0,1.46l4.16,4.17H13.35a1,1,0,1,0,0,2.08h4.71a1.09,1.09,0,0,0,1.11-1,.08.08,0,0,1,0,0s0,0,0-.06V14.71A1.07,1.07,0,0,0,18.13,13.62Z" style="fill:#fff"/></g></g></g></g></g><g transform="translate(162, 209)"><g transform="scale(1.5, 1.5)"><path d="m8.5 0.5 L 121.68333435058594 0.5 L 121.68333435058594 20.5 L 8.5 20.5 L 8.5 12.5 L 8.5 11.5 L 2.5 11.5 L 2.5 14.5 L 0.5 14.5 L 0.5 6.5 L 2.5 6.5 L 2.5 9.5 L 8.5 9.5 L 8.5 8.5 z" style="fill:#FF664B;fill-opacity:1;stroke:#EA4326;stroke-width:1;stroke-linecap:round;stroke-opacity:1;" /><text style="font-size:10px;fill:#282828;font-family:sans-serif;text-anchor:start"><tspan x="13" y="14">アクション</tspan></text></g></g><g><g transform="translate(14, 241)"><g transform="scale(1.5, 1.5)"><path d="m0.5 8.5 L 0.5 4.5 A 4 4 90 0 1 4.5 0.5 L 8.5 0.5 L 8.5 2.5 L 18.5 2.5 L 18.5 0.5 L 27.5 0.5 L 67.5 0.5 L 71.5 0.5 A 4 4 90 0 1 75.5 4.5 L 75.5 8.5 L 71.5 8.5 L 71.5 5.5 L 67.5 5.5 L 67.5 15.5 L 71.5 15.5 L 71.5 12.5 L 75.5 12.5 L 75.5 16.5 A 4 4 90 0 1 71.5 20.5 L 67.5 20.5 L 27.5 20.5 L 26.5 20.5 L 26.5 22.5 L 18.5 22.5 L 18.5 20.5 L 17.5 20.5 L 13.5 20.5 A 5 5 90 0 0 8.5 25.5 L 8.5 29.5 L 8.5 33.5 L 8.5 54.5 L 8.5 58.5 A 5 5 90 0 0 13.5 63.5 L 17.5 63.5 L 17.5 65.5 L 27.5 65.5 L 27.5 63.5 L 35.5 63.5 L 35.5 69.5 L 35.5 75.5 L 35.5 79.5 A 4 4 90 0 1 31.5 83.5 L 27.5 83.5 L 18.5 83.5 L 17.5 83.5 L 17.5 85.5 L 9.5 85.5 L 9.5 83.5 L 8.5 83.5 L 4.5 83.5 A 4 4 90 0 1 0.5 79.5 L 0.5 75.5 z" style="fill:#FF8700;fill-opacity:1;stroke:#E86B0E;stroke-width:1;stroke-linecap:round;stroke-opacity:1;" /><text style="font-size:10px;fill:#282828;font-family:sans-serif;text-anchor:start"><tspan x="20" y="15">おんぷ</tspan></text><text style="font-size:6.666666666666667px;fill:#282828;font-family:sans-serif;text-anchor:end"><tspan x="65" y="12">ながさ</tspan></text></g></g><g transform="translate(14, 245) scale(0.5 0.5)"><g style="isolation:isolate"><g id="レイヤー_2" data-name="レイヤー 2"><g id="Icon"><rect width="42" height="42" rx="5" ry="5" style="fill:#292929;opacity:0.4;mix-blend-mode:multiply"/><path d="M30.56,29.8l-4.17-4.16h2.26a1,1,0,1,0,0-2.07H23.94a1.08,1.08,0,0,0-1.11,1v0s0,0,0,.06v4.64h0a1,1,0,1,0,2.08,0V27.08l4.19,4.19a1,1,0,0,0,1.46,0A1,1,0,0,0,30.56,29.8Z" style="fill:#fff"/><path d="M19.17,24.6a1.08,1.08,0,0,0-1.11-1H13.35a1,1,0,1,0,0,2.07H15.6L11.44,29.8a1,1,0,0,0,1.47,1.47l4.18-4.19v2.26a1,1,0,1,0,2.08,0V24.7s0,0,0-.06A.08.08,0,0,1,19.17,24.6Z" style="fill:#fff"/><path d="M23.94,20.5h4.7a1,1,0,1,0,0-2.08H26.39l4.17-4.16a1,1,0,0,0,0-1.47,1,1,0,0,0-1.46,0L24.91,17V14.72a1,1,0,1,0-2.08,0v4.64a.43.43,0,0,0,0,.05v.05A1.09,1.09,0,0,0,23.94,20.5Z" style="fill:#fff"/><path d="M18.13,13.62a1.08,1.08,0,0,0-1,1.09V17l-4.18-4.19a1,1,0,0,0-1.47,0,1,1,0,0,0,0,1.46l4.16,4.17H13.35a1,1,0,1,0,0,2.08h4.71a1.09,1.09,0,0,0,1.11-1,.08.08,0,0,1,0,0s0,0,0-.06V14.71A1.07,1.07,0,0,0,18.13,13.62Z" style="fill:#fff"/></g></g></g></g></g><g transform="translate(116, 241)"><g transform="scale(1.5, 1.5)"><path d="m8.5 8.5 L 8.5 4.5 A 4 4 90 0 1 12.5 0.5 L 16.5 0.5 L 26.5 0.5 L 56.5 0.5 L 60.5 0.5 A 4 4 90 0 1 64.5 4.5 L 64.5 8.5 L 60.5 8.5 L 60.5 5.5 L 56.5 5.5 L 56.5 15.5 L 60.5 15.5 L 60.5 12.5 L 64.5 12.5 L 64.5 29.5 L 60.5 29.5 L 60.5 26.5 L 56.5 26.5 L 56.5 36.5 L 60.5 36.5 L 60.5 33.5 L 64.5 33.5 L 64.5 37.5 A 4 4 90 0 1 60.5 41.5 L 56.5 41.5 L 26.5 41.5 L 16.5 41.5 L 12.5 41.5 A 4 4 90 0 1 8.5 37.5 L 8.5 33.5 L 8.5 12.5 L 8.5 11.5 L 2.5 11.5 L 2.5 14.5 L 0.5 14.5 L 0.5 6.5 L 2.5 6.5 L 2.5 9.5 L 8.5 9.5 L 8.5 8.5 z" style="fill:#FF6EA1;fill-opacity:1;stroke:#FF2C76;stroke-width:1;stroke-linecap:round;stroke-opacity:1;" /><text style="font-size:9px;fill:#282828;font-family:sans-serif;text-anchor:end"><tspan x="54" y="23">➗</tspan></text><text style="font-size:6px;fill:#282828;font-family:sans-serif;text-anchor:end"><tspan x="54" y="12"></tspan></text><text style="font-size:6px;fill:#282828;font-family:sans-serif;text-anchor:end"><tspan x="54" y="33"></tspan></text></g></g><g transform="translate(202, 241)"><g transform="scale(1.5, 1.5)"><path d="m8.5 0.5 L 68.5 0.5 L 68.5 20.5 L 8.5 20.5 L 8.5 12.5 L 8.5 11.5 L 2.5 11.5 L 2.5 14.5 L 0.5 14.5 L 0.5 6.5 L 2.5 6.5 L 2.5 9.5 L 8.5 9.5 L 8.5 8.5 z" style="fill:#FF6EA1;fill-opacity:1;stroke:#FF2C76;stroke-width:1;stroke-linecap:round;stroke-opacity:1;" /><text style="font-size:10px;fill:#282828;font-family:sans-serif;text-anchor:start"><tspan x="13" y="14">1</tspan></text></g></g><g transform="translate(202, 273)"><g transform="scale(1.5, 1.5)"><path d="m8.5 0.5 L 68.5 0.5 L 68.5 20.5 L 8.5 20.5 L 8.5 12.5 L 8.5 11.5 L 2.5 11.5 L 2.5 14.5 L 0.5 14.5 L 0.5 6.5 L 2.5 6.5 L 2.5 9.5 L 8.5 9.5 L 8.5 8.5 z" style="fill:#FF6EA1;fill-opacity:1;stroke:#FF2C76;stroke-width:1;stroke-linecap:round;stroke-opacity:1;" /><text style="font-size:10px;fill:#282828;font-family:sans-serif;text-anchor:start"><tspan x="13" y="14">4</tspan></text></g></g><g transform="translate(28, 273)"><g transform="scale(1.5, 1.5)"><path d="m0.5 8.5 L 0.5 4.5 A 4 4 90 0 1 4.5 0.5 L 8.5 0.5 L 8.5 2.5 L 18.5 2.5 L 18.5 0.5 L 38.5 0.5 L 42.5 0.5 A 4 4 90 0 1 46.5 4.5 L 46.5 8.5 L 46.5 12.5 L 46.5 16.5 A 4 4 90 0 1 42.5 20.5 L 38.5 20.5 L 18.5 20.5 L 17.5 20.5 L 17.5 22.5 L 9.5 22.5 L 9.5 20.5 L 8.5 20.5 L 4.5 20.5 A 4 4 90 0 1 0.5 16.5 L 0.5 12.5 z" style="fill:#C4C4C4;fill-opacity:1;stroke:#A0A0A0;stroke-width:1;stroke-linecap:round;stroke-opacity:1;" /><text style="font-size:10px;fill:#282828;font-family:sans-serif;text-anchor:end"><tspan x="36" y="14">↓</tspan></text></g></g><g transform="translate(28, 305)"><g transform="scale(1.5, 1.5)"><path d="m0.5 8.5 L 0.5 4.5 A 4 4 90 0 1 4.5 0.5 L 8.5 0.5 L 8.5 2.5 L 18.5 2.5 L 18.5 0.5 L 48.5 0.5 L 52.5 0.5 A 4 4 90 0 1 56.5 4.5 L 56.5 8.5 L 52.5 8.5 L 52.5 5.5 L 48.5 5.5 L 48.5 15.5 L 52.5 15.5 L 52.5 12.5 L 56.5 12.5 L 56.5 16.5 A 4 4 90 0 1 52.5 20.5 L 48.5 20.5 L 18.5 20.5 L 17.5 20.5 L 17.5 22.5 L 9.5 22.5 L 9.5 20.5 L 8.5 20.5 L 4.5 20.5 A 4 4 90 0 1 0.5 16.5 L 0.5 12.5 L 0.5 8.5 z" style="fill:#3EDCDD;fill-opacity:1;stroke:#1DBCBD;stroke-width:1;stroke-linecap:round;stroke-opacity:1;" /><text style="font-size:10px;fill:#282828;font-family:sans-serif;text-anchor:end"><tspan x="46" y="14">ドラム</tspan></text><text style="font-size:6.666666666666667px;fill:#282828;font-family:sans-serif;text-anchor:end"><tspan x="46" y="12"></tspan></text></g></g><g transform="translate(102, 305)"><g transform="scale(1.5, 1.5)"><path d="m8.5 0.5 L 111.68333435058594 0.5 L 111.68333435058594 20.5 L 8.5 20.5 L 8.5 12.5 L 8.5 11.5 L 2.5 11.5 L 2.5 14.5 L 0.5 14.5 L 0.5 6.5 L 2.5 6.5 L 2.5 9.5 L 8.5 9.5 L 8.5 8.5 z" style="fill:#92A9FF;fill-opacity:1;stroke:#5370DC;stroke-width:1;stroke-linecap:round;stroke-opacity:1;" /><text style="font-size:10px;fill:#282828;font-family:sans-serif;text-anchor:start"><tspan x="13" y="14">ネズミの なまえ</tspan></text></g></g></svg>

<?xml version="1.0" encoding="UTF-8" standalone="no"?>
<svg
   id="svg244"
   version="1.1"
   height="31.5"
   width="144.5"
   xmlns="http://www.w3.org/2000/svg"
   xmlns:svg="http://www.w3.org/2000/svg"
   xmlns:rdf="http://www.w3.org/1999/02/22-rdf-syntax-ns#"
   xmlns:cc="http://creativecommons.org/ns#"
   xmlns:dc="http://purl.org/dc/elements/1.1/">
  <metadata
     id="metadata250">
    <rdf:RDF>
      <cc:Work
         rdf:about="">
        <dc:format>image/svg+xml</dc:format>
        <dc:type
           rdf:resource="http://purl.org/dc/dcmitype/StillImage" />
      </cc:Work>
    </rdf:RDF>
  </metadata>
  <defs
     id="defs248" />
  <g
     id="g164">
    <g
       id="g162"
       transform="scale(1.5)">
      <path
         id="path156"
         style="fill:#92a9ff;fill-opacity:1;stroke:#5370dc;stroke-width:1;stroke-linecap:round;stroke-opacity:1"
         d="m 8.5,0.5 h 87.333333 v 20 H 8.5 v -8 -1 h -6 v 3 h -2 v -8 h 2 v 3 h 6 v -1 z" />
      <text
         id="text160"
         style="font-size:10px;font-family:sans-serif;text-anchor:start;fill:#282828"><tspan
           id="tspan158"
           y="14"
           x="13">なんひきのネズミ</tspan></text>
    </g>
  </g>
</svg>
